;FLAVOR:Marlin
;TIME:2355
;Filament used: 1.12699m
;Layer height: 0.2
;MINX:84
;MINY:73.759
;MINZ:0.2
;MAXX:136
;MAXY:146.241
;MAXZ:30
;TARGET_MACHINE.NAME:Creality Ender-3 Pro
;Generated with Cura_SteamEngine 5.10.0
; Ender 3 Custom Start G-code
G92 E0 ; Reset Extruder
G28 ; Home all axes
G1 Z5.0 F3000 ; Move Z Axis up a bit during heating to not damage bed
M104 S175 ; Start heating up the nozzle most of the way
M190 S60 ; Start heating the bed, wait until target temperature reached
M109 S200 ; Finish heating the nozzle
G1 Z2.0 F3000 ; Move Z Axis up little to prevent scratching of Heat Bed
G1 X0.1 Y20 Z0.3 F5000.0 ; Move to start position
G1 X0.1 Y200.0 Z0.3 F1500.0 E15 ; Draw the first line
G1 X0.4 Y200.0 Z0.3 F5000.0 ; Move to side a little
G1 X0.4 Y20 Z0.3 F1500.0 E30 ; Draw the second line
G92 E0 ; Reset Extruder
G1 Z2.0 F3000 ; Move Z Axis up little to prevent scratching of Heat Bed
G1 X5 Y20 Z0.3 F5000.0 ; Move over to prevent blob squish
M82 ;absolute extrusion mode
G92 E0
G92 E0
G1 F1500 E-6.5
;LAYER_COUNT:150
;LAYER:0
M107
G0 F6000 X86.727 Y77.519 Z0.2
;TYPE:SKIRT
G1 F1500 E0
G1 F1200 X87.453 Y76.766 E0.03479
G1 X88.19 Y76.129 E0.06719
G1 X88.979 Y75.561 E0.09952
G1 X89.816 Y75.063 E0.13192
G1 X90.694 Y74.642 E0.1643
G1 X91.607 Y74.3 E0.19673
G1 X92.545 Y74.04 E0.22911
G1 X93.502 Y73.864 E0.26147
G1 X94.458 Y73.773 E0.29341
G1 X95.037 Y73.759 E0.31267
G1 X95.46 Y73.76 E0.32674
G1 X96.362 Y73.802 E0.35678
G1 X97.397 Y73.944 E0.39152
G1 X98.347 Y74.164 E0.42396
G1 X99.279 Y74.469 E0.45657
G1 X100.294 Y74.911 E0.49339
G1 X101.158 Y75.346 E0.52557
G1 X102.184 Y75.882 E0.56407
G1 X104.447 Y76.981 E0.64774
G1 X106.73 Y78.014 E0.73108
G1 X109.035 Y78.978 E0.81418
G1 X111.435 Y79.903 E0.89973
G1 X113.768 Y80.726 E0.98201
G1 X116.167 Y81.497 E1.06583
G1 X118.597 Y82.205 E1.15001
G1 X121.014 Y82.832 E1.23306
G1 X123.492 Y83.403 E1.31764
G1 X126.078 Y83.923 E1.40537
G1 X127.03 Y84.099 E1.43757
G1 X127.91 Y84.303 E1.46761
G1 X128.905 Y84.627 E1.50242
G1 X129.735 Y84.983 E1.53246
G1 X130.654 Y85.479 E1.56719
G1 X131.467 Y86.017 E1.59962
G1 X132.227 Y86.624 E1.63197
G1 X132.907 Y87.271 E1.66318
G1 X133.573 Y88.029 E1.69674
G1 X134.149 Y88.814 E1.72913
G1 X134.618 Y89.586 E1.75917
G1 X135.078 Y90.524 E1.79392
G1 X135.426 Y91.433 E1.82629
G1 X135.694 Y92.37 E1.85871
G1 X135.866 Y93.257 E1.88876
G1 X135.987 Y94.606 E1.93381
G1 X136 Y95.23 E1.95457
G1 X135.999 Y124.516 E2.92862
G1 X135.987 Y125.277 E2.95394
G1 X135.929 Y126.25 E2.98636
G1 X135.783 Y127.213 E3.01875
G1 X135.552 Y128.16 E3.05117
G1 X135.239 Y129.082 E3.08356
G1 X134.847 Y129.973 E3.11593
G1 X134.395 Y130.795 E3.14713
G1 X133.833 Y131.633 E3.18069
G1 X133.243 Y132.363 E3.21191
G1 X132.54 Y133.089 E3.24552
G1 X131.804 Y133.725 E3.27788
G1 X131.014 Y134.295 E3.31028
G1 X130.238 Y134.758 E3.34033
G1 X129.298 Y135.211 E3.37504
G1 X128.369 Y135.557 E3.40801
G1 X127.031 Y135.9 E3.45395
G1 X124.664 Y136.347 E3.53407
G1 X122.134 Y136.894 E3.62016
G1 X119.789 Y137.47 E3.70048
G1 X117.282 Y138.164 E3.78699
G1 X114.897 Y138.897 E3.86998
G1 X112.503 Y139.708 E3.95405
G1 X110.154 Y140.578 E4.03737
G1 X107.844 Y141.509 E4.1202
G1 X105.482 Y142.54 E4.20592
G1 X103.262 Y143.583 E4.2875
G1 X100.459 Y145.005 E4.39204
G1 X99.608 Y145.401 E4.42326
G1 X98.66 Y145.743 E4.45678
G1 X97.753 Y145.984 E4.48799
G1 X96.744 Y146.155 E4.52203
G1 X95.454 Y146.239 E4.56503
G1 X95.029 Y146.241 E4.57916
G1 X94.056 Y146.2 E4.61155
G1 X93.091 Y146.072 E4.64393
G1 X92.141 Y145.861 E4.6763
G1 X91.28 Y145.59 E4.70632
G1 X90.315 Y145.188 E4.74109
G1 X89.452 Y144.734 E4.77352
G1 X88.635 Y144.205 E4.80589
G1 X87.867 Y143.606 E4.83829
G1 X87.155 Y142.942 E4.87067
G1 X86.505 Y142.217 E4.90306
G1 X85.92 Y141.437 E4.93548
G1 X85.409 Y140.61 E4.96782
G1 X85 Y139.804 E4.99788
G1 X84.613 Y138.833 E5.03265
G1 X84.336 Y137.901 E5.06498
G1 X84.153 Y137.016 E5.09504
G1 X84.013 Y135.534 E5.14455
G1 X84 Y134.908 E5.16538
G1 X84.001 Y85.304 E6.81521
G1 X84.012 Y84.58 E6.8393
G1 X84.07 Y83.607 E6.87172
G1 X84.215 Y82.644 E6.90411
G1 X84.435 Y81.731 E6.93534
G1 X84.756 Y80.775 E6.96888
G1 X85.149 Y79.884 E7.00127
G1 X85.6 Y79.062 E7.03246
G1 X86.161 Y78.223 E7.06603
G1 X86.727 Y77.519 E7.09607
G0 F6000 X87.039 Y77.77
G1 F1200 X87.715 Y77.068 E7.12849
G1 X88.424 Y76.453 E7.1597
G1 X89.184 Y75.904 E7.19089
G1 X89.99 Y75.423 E7.2221
G1 X90.835 Y75.016 E7.2533
G1 X91.714 Y74.685 E7.28454
G1 X92.618 Y74.433 E7.31575
G1 X93.54 Y74.262 E7.34694
G1 X94.468 Y74.173 E7.37795
G1 X95.036 Y74.159 E7.39685
G1 X95.441 Y74.16 E7.41032
G1 X96.343 Y74.202 E7.44035
G1 X97.308 Y74.334 E7.47274
G1 X98.223 Y74.544 E7.50397
G1 X99.119 Y74.836 E7.53531
G1 X100.134 Y75.278 E7.57213
G1 X100.973 Y75.701 E7.60338
G1 X102.009 Y76.242 E7.64226
G1 X104.272 Y77.341 E7.72593
G1 X106.576 Y78.383 E7.81004
G1 X108.891 Y79.351 E7.89349
G1 X111.295 Y80.277 E7.97918
G1 X113.646 Y81.107 E8.0621
G1 X116.048 Y81.879 E8.14602
G1 X118.485 Y82.589 E8.23044
G1 X120.924 Y83.222 E8.31425
G1 X123.402 Y83.793 E8.39883
G1 X125.999 Y84.315 E8.48693
G1 X126.94 Y84.489 E8.51876
G1 X127.82 Y84.693 E8.54881
G1 X128.747 Y84.995 E8.58123
G1 X129.577 Y85.351 E8.61127
G1 X130.434 Y85.813 E8.64365
G1 X131.218 Y86.33 E8.67489
G1 X131.951 Y86.914 E8.70606
G1 X132.631 Y87.561 E8.73728
G1 X133.251 Y88.266 E8.76851
G1 X133.807 Y89.022 E8.79972
G1 X134.276 Y89.794 E8.82976
G1 X134.705 Y90.668 E8.86214
G1 X135.042 Y91.543 E8.89333
G1 X135.301 Y92.446 E8.92458
G1 X135.473 Y93.333 E8.95463
G1 X135.587 Y94.614 E8.9974
G1 X135.6 Y95.23 E9.01789
G1 X135.599 Y124.51 E9.99175
G1 X135.588 Y125.254 E10.0165
G1 X135.533 Y126.191 E10.04772
G1 X135.394 Y127.119 E10.07893
G1 X135.173 Y128.032 E10.11017
G1 X134.873 Y128.921 E10.14138
G1 X134.496 Y129.78 E10.17258
G1 X134.044 Y130.602 E10.20378
G1 X133.521 Y131.382 E10.23501
G1 X132.955 Y132.085 E10.26503
G1 X132.278 Y132.787 E10.29747
G1 X131.57 Y133.401 E10.32864
G1 X130.809 Y133.951 E10.35987
G1 X130.033 Y134.414 E10.38992
G1 X129.157 Y134.837 E10.42228
G1 X128.27 Y135.17 E10.45379
G1 X126.957 Y135.507 E10.49888
G1 X124.579 Y135.956 E10.57937
G1 X122.049 Y136.503 E10.66546
G1 X119.682 Y137.085 E10.74653
G1 X117.175 Y137.779 E10.83305
G1 X114.769 Y138.518 E10.91676
G1 X112.375 Y139.329 E11.00083
G1 X110.015 Y140.203 E11.08454
G1 X107.684 Y141.142 E11.16812
G1 X105.322 Y142.173 E11.25384
G1 X103.081 Y143.226 E11.33619
G1 X100.29 Y144.642 E11.44029
G1 X99.439 Y145.038 E11.4715
G1 X98.557 Y145.356 E11.50269
G1 X97.65 Y145.597 E11.5339
G1 X96.718 Y145.756 E11.56535
G1 X95.452 Y145.839 E11.60755
G1 X95.045 Y145.841 E11.62108
G1 X94.108 Y145.803 E11.65227
G1 X93.177 Y145.681 E11.6835
G1 X92.261 Y145.479 E11.7147
G1 X91.4 Y145.208 E11.74472
G1 X90.501 Y144.834 E11.77711
G1 X89.669 Y144.398 E11.80835
G1 X88.88 Y143.889 E11.83958
G1 X88.139 Y143.313 E11.8708
G1 X87.452 Y142.674 E11.902
G1 X86.825 Y141.977 E11.93318
G1 X86.26 Y141.226 E11.96444
G1 X85.766 Y140.429 E11.99563
G1 X85.357 Y139.623 E12.02569
G1 X84.996 Y138.719 E12.05807
G1 X84.728 Y137.82 E12.08927
G1 X84.545 Y136.935 E12.11933
G1 X84.413 Y135.526 E12.16639
G1 X84.4 Y134.908 E12.18695
G1 X84.401 Y85.31 E13.83659
G1 X84.411 Y84.603 E13.86011
G1 X84.466 Y83.666 E13.89133
G1 X84.604 Y82.738 E13.92253
G1 X84.824 Y81.825 E13.95377
G1 X85.122 Y80.936 E13.98495
G1 X85.5 Y80.076 E14.0162
G1 X85.951 Y79.254 E14.04738
G1 X86.473 Y78.474 E14.0786
G1 X87.039 Y77.77 E14.10864
G0 F6000 X87.351 Y78.021
G1 F1200 X87.977 Y77.37 E14.13868
G1 X88.659 Y76.777 E14.16874
G1 X89.39 Y76.247 E14.19877
G1 X90.164 Y75.783 E14.22879
G1 X90.977 Y75.39 E14.25882
G1 X91.822 Y75.07 E14.28887
G1 X92.692 Y74.826 E14.31892
G1 X93.579 Y74.66 E14.34894
G1 X94.478 Y74.573 E14.37898
G1 X95.035 Y74.559 E14.39751
G1 X95.422 Y74.56 E14.41038
G1 X96.324 Y74.602 E14.44042
G1 X97.219 Y74.724 E14.47046
G1 X98.1 Y74.925 E14.50051
G1 X98.959 Y75.203 E14.53054
G1 X99.974 Y75.645 E14.56736
G1 X100.788 Y76.055 E14.59768
G1 X101.834 Y76.602 E14.63694
G1 X104.107 Y77.706 E14.72098
G1 X106.411 Y78.747 E14.80507
G1 X108.747 Y79.724 E14.88929
G1 X111.155 Y80.651 E14.97511
G1 X113.524 Y81.488 E15.05868
G1 X115.929 Y82.261 E15.1427
G1 X118.378 Y82.974 E15.22754
G1 X120.834 Y83.612 E15.31193
G1 X123.312 Y84.183 E15.39651
G1 X125.92 Y84.707 E15.48499
G1 X126.85 Y84.879 E15.51644
G1 X127.73 Y85.083 E15.54649
G1 X128.589 Y85.363 E15.57654
G1 X129.419 Y85.719 E15.60658
G1 X130.214 Y86.147 E15.63661
G1 X130.969 Y86.643 E15.66665
G1 X131.676 Y87.204 E15.69667
G1 X132.331 Y87.826 E15.72672
G1 X132.929 Y88.503 E15.75676
G1 X133.465 Y89.23 E15.7868
G1 X133.934 Y90.002 E15.81684
G1 X134.332 Y90.812 E15.84686
G1 X134.658 Y91.654 E15.87689
G1 X134.908 Y92.522 E15.90694
G1 X135.08 Y93.409 E15.93699
G1 X135.187 Y94.623 E15.97752
G1 X135.2 Y95.23 E15.99771
G1 X135.199 Y124.504 E16.97137
G1 X135.189 Y125.231 E16.99555
G1 X135.137 Y126.133 E17.0256
G1 X135.005 Y127.026 E17.05563
G1 X134.794 Y127.905 E17.08569
G1 X134.507 Y128.761 E17.11572
G1 X134.145 Y129.588 E17.14575
G1 X133.711 Y130.38 E17.17579
G1 X133.209 Y131.131 E17.20583
G1 X132.643 Y131.834 E17.23585
G1 X132.016 Y132.485 E17.26591
G1 X131.335 Y133.077 E17.29592
G1 X130.604 Y133.607 E17.32596
G1 X129.828 Y134.07 E17.35601
G1 X129.015 Y134.463 E17.38604
G1 X128.17 Y134.783 E17.4161
G1 X126.883 Y135.114 E17.4603
G1 X124.494 Y135.565 E17.54116
G1 X121.964 Y136.112 E17.62725
G1 X119.575 Y136.7 E17.70908
G1 X117.068 Y137.394 E17.7956
G1 X114.641 Y138.139 E17.88004
G1 X112.247 Y138.95 E17.96411
G1 X109.876 Y139.828 E18.0482
G1 X107.524 Y140.775 E18.13253
G1 X105.162 Y141.806 E18.21825
G1 X102.9 Y142.869 E18.30138
G1 X100.121 Y144.28 E18.40504
G1 X99.303 Y144.662 E18.43507
G1 X98.454 Y144.97 E18.46511
G1 X97.582 Y145.203 E18.49513
G1 X96.692 Y145.357 E18.52517
G1 X95.45 Y145.439 E18.56657
G1 X95.061 Y145.441 E18.5795
G1 X94.159 Y145.406 E18.60953
G1 X93.263 Y145.29 E18.63958
G1 X92.381 Y145.097 E18.66961
G1 X91.52 Y144.826 E18.69963
G1 X90.686 Y144.479 E18.72967
G1 X89.885 Y144.061 E18.75972
G1 X89.125 Y143.573 E18.78976
G1 X88.411 Y143.02 E18.8198
G1 X87.749 Y142.406 E18.84983
G1 X87.144 Y141.736 E18.87986
G1 X86.6 Y141.015 E18.9099
G1 X86.123 Y140.248 E18.93994
G1 X85.714 Y139.442 E18.97
G1 X85.379 Y138.604 E19.00002
G1 X85.12 Y137.739 E19.03005
G1 X84.937 Y136.854 E19.06011
G1 X84.813 Y135.517 E19.10477
G1 X84.8 Y134.908 E19.12503
G1 X84.801 Y85.315 E20.7745
G1 X84.81 Y84.626 E20.79742
G1 X84.862 Y83.724 E20.82747
G1 X84.993 Y82.831 E20.85749
G1 X85.203 Y81.952 E20.88754
G1 X85.489 Y81.096 E20.91756
G1 X85.851 Y80.268 E20.94762
G1 X86.284 Y79.476 E20.97764
G1 X86.785 Y78.725 E21.00767
G1 X87.351 Y78.021 E21.03771
G1 F1500 E14.53771
;MESH:Copy of vase test3(Of)min (12).stl
G0 F6000 X94.335 Y95.33
G0 X110 Y124.5
;TYPE:WALL-INNER
G1 F1500 E21.03771
G1 F1200 X124.4 Y124.5 E21.51666
G1 X124.4 Y95.5 E22.4812
G1 X95.6 Y95.5 E23.43909
G1 X95.6 Y124.5 E24.40364
G1 X110 Y124.5 E24.88258
G0 F6000 X110 Y124.9
;TYPE:WALL-OUTER
G1 F1200 X124.8 Y124.9 E25.37483
G1 X124.8 Y95.1 E26.36598
G1 X95.4 Y95.1 E27.34383
G1 F1194 X95.201 Y94.934 E27.35249
G1 X95.2 Y125.1 E28.36084
G1 F1200 X95.4 Y124.9 E28.37024
G1 X110 Y124.9 E28.85584
G1 F1500 E22.35584
G0 F6000 X110 Y124.59
G0 X95.48 Y124.62
G0 X95.2 Y125.1
G1 F1500 E28.85584
G1 F1200 X95.2 Y135.048 E29.18671
G1 F1500 E22.68671
G0 F6000 X96.065 Y135.048
G0 X96.053 Y125.753
G0 X95.201 Y94.934
G1 F1500 E29.18671
G1 F1194 X95.2 Y84.948 E29.52051
G1 F1500 E23.02051
G0 F6000 X96.065 Y84.948
G0 X96.053 Y94.247
G0 X110 Y124.14
;TYPE:SKIN
G1 F1500 E29.52051
G1 F1200 X95.96 Y124.14 E29.98748
G1 X95.96 Y95.86 E30.92808
G1 X124.04 Y95.86 E31.86202
G1 X124.04 Y124.14 E32.80262
G1 X110 Y124.14 E33.26959
G0 F6000 X110 Y124.4
G0 X95.772 Y124.328
G0 X95.7 Y123.879
G0 X96.16 Y123.879
G1 F1200 X96.221 Y123.94 E33.27246
G0 F6000 X96.787 Y123.94
G1 F1200 X96.16 Y123.313 E33.30195
G0 F6000 X96.16 Y122.747
G1 F1200 X97.352 Y123.94 E33.35804
G0 F6000 X97.918 Y123.94
G1 F1200 X96.16 Y122.182 E33.44074
G0 F6000 X96.16 Y121.616
G1 F1200 X98.484 Y123.94 E33.55005
G0 F6000 X99.049 Y123.94
G1 F1200 X96.16 Y121.05 E33.68596
G0 F6000 X96.16 Y120.485
G1 F1200 X99.615 Y123.94 E33.84848
G0 F6000 X100.181 Y123.94
G1 F1200 X96.16 Y119.919 E34.03761
G0 F6000 X96.16 Y119.353
G1 F1200 X100.746 Y123.94 E34.25335
G0 F6000 X101.312 Y123.94
G1 F1200 X96.16 Y118.788 E34.49568
G0 F6000 X96.16 Y118.222
G1 F1200 X101.878 Y123.94 E34.76464
G0 F6000 X102.444 Y123.94
G1 F1200 X96.16 Y117.656 E35.06022
G0 F6000 X96.16 Y117.091
G1 F1200 X103.009 Y123.94 E35.38237
G0 F6000 X103.575 Y123.94
G1 F1200 X96.16 Y116.525 E35.73115
G0 F6000 X96.16 Y115.959
G1 F1200 X104.141 Y123.94 E36.10655
G0 F6000 X104.706 Y123.94
G1 F1200 X96.16 Y115.393 E36.50856
G0 F6000 X96.16 Y114.828
G1 F1200 X105.272 Y123.94 E36.93716
G0 F6000 X105.838 Y123.94
G1 F1200 X96.16 Y114.262 E37.39238
G0 F6000 X96.16 Y113.696
G1 F1200 X106.403 Y123.94 E37.8742
G0 F6000 X106.969 Y123.94
G1 F1200 X96.16 Y113.131 E38.38262
G0 F6000 X96.16 Y112.565
G1 F1200 X107.535 Y123.94 E38.91767
G0 F6000 X108.1 Y123.94
G1 F1200 X96.16 Y111.999 E39.47931
G0 F6000 X96.16 Y111.434
G1 F1200 X108.666 Y123.94 E40.06756
G0 F6000 X109.232 Y123.94
G1 F1200 X96.16 Y110.868 E40.68242
G0 F6000 X96.16 Y110.302
G1 F1200 X109.797 Y123.94 E41.32389
G0 F6000 X110.363 Y123.94
G1 F1200 X96.16 Y109.737 E41.99196
G0 F6000 X96.16 Y109.171
G1 F1200 X110.929 Y123.94 E42.68664
G0 F6000 X111.494 Y123.94
G1 F1200 X96.16 Y108.605 E43.40793
G0 F6000 X96.16 Y108.04
G1 F1200 X112.06 Y123.94 E44.15582
G0 F6000 X112.626 Y123.94
G1 F1200 X96.16 Y107.474 E44.93033
G0 F6000 X96.16 Y106.908
G1 F1200 X113.192 Y123.94 E45.73146
G0 F6000 X113.757 Y123.94
G1 F1200 X96.16 Y106.342 E46.5592
G0 F6000 X96.16 Y105.777
G1 F1200 X114.323 Y123.94 E47.41353
G0 F6000 X114.889 Y123.94
G1 F1200 X96.16 Y105.211 E48.29448
G0 F6000 X96.16 Y104.645
G1 F1200 X115.454 Y123.94 E49.20204
G0 F6000 X116.02 Y123.94
G1 F1200 X96.16 Y104.08 E50.13619
G0 F6000 X96.16 Y103.514
G1 F1200 X116.586 Y123.94 E51.09697
G0 F6000 X117.151 Y123.94
G1 F1200 X96.16 Y102.948 E52.08434
G0 F6000 X96.16 Y102.383
G1 F1200 X117.717 Y123.94 E53.09832
G0 F6000 X118.283 Y123.94
G1 F1200 X96.16 Y101.817 E54.13892
G0 F6000 X96.16 Y101.251
G1 F1200 X118.848 Y123.94 E55.20611
G0 F6000 X119.414 Y123.94
G1 F1200 X96.16 Y100.686 E56.29991
G0 F6000 X96.16 Y100.12
G1 F1200 X119.98 Y123.94 E57.42033
G0 F6000 X120.545 Y123.94
G1 F1200 X96.16 Y99.554 E58.56735
G0 F6000 X96.16 Y98.989
G1 F1200 X121.111 Y123.94 E59.74097
G0 F6000 X121.677 Y123.94
G1 F1200 X96.16 Y98.423 E60.94121
G0 F6000 X96.16 Y97.857
G1 F1200 X122.242 Y123.94 E62.16805
G0 F6000 X122.808 Y123.94
G1 F1200 X96.16 Y97.292 E63.42149
G0 F6000 X96.16 Y96.726
G1 F1200 X123.374 Y123.94 E64.70155
G0 F6000 X123.84 Y123.84
G1 F1200 X96.16 Y96.16 E66.00354
G0 F6000 X96.626 Y96.06
G1 F1200 X123.84 Y123.274 E67.2836
G0 F6000 X123.84 Y122.708
G1 F1200 X97.192 Y96.06 E68.53704
G0 F6000 X97.758 Y96.06
G1 F1200 X123.84 Y122.143 E69.76388
G0 F6000 X123.84 Y121.577
G1 F1200 X98.323 Y96.06 E70.96412
G0 F6000 X98.889 Y96.06
G1 F1200 X123.84 Y121.011 E72.13774
G0 F6000 X123.84 Y120.446
G1 F1200 X99.455 Y96.06 E73.28476
G0 F6000 X100.02 Y96.06
G1 F1200 X123.84 Y119.88 E74.40518
G0 F6000 X123.84 Y119.314
G1 F1200 X100.586 Y96.06 E75.49898
G0 F6000 X101.152 Y96.06
G1 F1200 X123.84 Y118.749 E76.56617
G0 F6000 X123.84 Y118.183
G1 F1200 X101.717 Y96.06 E77.60677
G0 F6000 X102.283 Y96.06
G1 F1200 X123.84 Y117.617 E78.62075
G0 F6000 X123.84 Y117.052
G1 F1200 X102.849 Y96.06 E79.60812
G0 F6000 X103.414 Y96.06
G1 F1200 X123.84 Y116.486 E80.5689
G0 F6000 X123.84 Y115.92
G1 F1200 X103.98 Y96.06 E81.50305
G0 F6000 X104.546 Y96.06
G1 F1200 X123.84 Y115.355 E82.41061
G0 F6000 X123.84 Y114.789
G1 F1200 X105.111 Y96.06 E83.29156
G0 F6000 X105.677 Y96.06
G1 F1200 X123.84 Y114.223 E84.14589
G0 F6000 X123.84 Y113.658
G1 F1200 X106.243 Y96.06 E84.97362
G0 F6000 X106.808 Y96.06
G1 F1200 X123.84 Y113.092 E85.77476
G0 F6000 X123.84 Y112.526
G1 F1200 X107.374 Y96.06 E86.54927
G0 F6000 X107.94 Y96.06
G1 F1200 X123.84 Y111.96 E87.29716
G0 F6000 X123.84 Y111.395
G1 F1200 X108.506 Y96.06 E88.01844
G0 F6000 X109.071 Y96.06
